gama.ui.shared/icons_svg/light/editor/command.outline.svg

<svg height="25" viewBox="-883.384 -3741.319 25 25" width="25" xmlns="http://www.w3.org/2000/svg"><g fill="none"><path d="m-862.724-3716.8194h-16.32c-2.1208 0-3.84-1.7193-3.84-3.84v-16.32c0-2.1206 1.7192-3.84 3.84-3.84h16.32c2.1208 0 3.84 1.7194 3.84 3.84v16.32c0 2.1207-1.7192 3.84-3.84 3.84z" fill="#fff"/><path d="m-862.724-3716.8194h-16.32c-2.1208 0-3.84-1.7193-3.84-3.84v-16.32c0-2.1206 1.7192-3.84 3.84-3.84h16.32c2.1208 0 3.84 1.7194 3.84 3.84v16.32c0 2.1207-1.7192 3.84-3.84 3.84z" stroke="#000" stroke-linecap="round" stroke-linejoin="round" stroke-width=".25"/><path d="m-878.884-3733.7083c0-.4887.4-.8887.8889-.8887h.8889c.4889 0 .8889.4.8889.8887v.8889c0 .4888-.4.8888-.8889.8888h-.8889c-.4889 0-.8889-.4-.8889-.8888zm4.8889.8889c-.2489 0-.4445-.1956-.4445-.4446 0-.2488.1956-.4443.4445-.4443h10.6667c.2488 0 .4444.1955.4444.4443 0 .249-.1956.4446-.4444.4446zm-4.8889 3.5554c0-.4888.4-.8888.8889-.8888h.8889c.4889 0 .8889.4.8889.8888v.889c0 .489-.4.889-.8889.889h-.8889c-.4889 0-.8889-.4-.8889-.889zm4.8889.889c-.2489 0-.4445-.1956-.4445-.4444 0-.2489.1956-.4446.4445-.4446h10.6667c.2488 0 .4444.1957.4444.4446 0 .2488-.1956.4444-.4444.4444zm-4.8889 3.5556c0-.4889.4-.8889.8889-.8889h.8889c.4889 0 .8889.4.8889.8889v.8888c0 .4889-.4.8889-.8889.8889h-.8889c-.4889 0-.8889-.4-.8889-.8889zm.8889-8.8889v.8889h.8889v-.8889zm0 4.4443v.889h.8889v-.889zm0 4.4446v.8888h.8889v-.8888zm4 .8888c-.2489 0-.4445-.1954-.4445-.4444s.1956-.4444.4445-.4444h10.6667c.2488 0 .4444.1954.4444.4444s-.1956.4444-.4444.4444z" fill="#5c76a1"/></g></svg>

<?xml version="1.0" encoding="UTF-8" standalone="no"?>
<!DOCTYPE svg PUBLIC "-//W3C//DTD SVG 1.1//EN" "http://www.w3.org/Graphics/SVG/1.1/DTD/svg11.dtd">
<svg version="1.1" xmlns="http://www.w3.org/2000/svg" xmlns:xl="http://www.w3.org/1999/xlink" xmlns:dc="http://purl.org/dc/elements/1.1/" viewBox="-883.384 -3741.3194 25 25" width="25" height="25">
  <defs/>
  <g id="SOURCES" stroke-dasharray="none" fill="none" stroke="none" fill-opacity="1" stroke-opacity="1">
    <title>SOURCES</title>
    <g id="SOURCES_Calque_2">
      <title>Calque 2</title>
      <g id="Graphic_9038">
        <title>views/view.other</title>
        <path d="M -862.724 -3716.8194 L -879.044 -3716.8194 C -881.1648 -3716.8194 -882.884 -3718.5387 -882.884 -3720.6594 L -882.884 -3736.9794 C -882.884 -3739.1 -881.1648 -3740.8194 -879.044 -3740.8194 L -862.724 -3740.8194 C -860.6032 -3740.8194 -858.884 -3739.1 -858.884 -3736.9794 L -858.884 -3720.6594 C -858.884 -3718.5387 -860.6032 -3716.8194 -862.724 -3716.8194 Z" fill="white"/>
        <path d="M -862.724 -3716.8194 L -879.044 -3716.8194 C -881.1648 -3716.8194 -882.884 -3718.5387 -882.884 -3720.6594 L -882.884 -3736.9794 C -882.884 -3739.1 -881.1648 -3740.8194 -879.044 -3740.8194 L -862.724 -3740.8194 C -860.6032 -3740.8194 -858.884 -3739.1 -858.884 -3736.9794 L -858.884 -3720.6594 C -858.884 -3718.5387 -860.6032 -3716.8194 -862.724 -3716.8194 Z" stroke="black" stroke-linecap="round" stroke-linejoin="round" stroke-width=".25"/>
      </g>
      <g id="Group_9025">
        <title>list-bullet</title>
        <g id="Graphic_9026">
          <path d="M -878.884 -3733.7083 C -878.884 -3734.197 -878.484 -3734.597 -877.9951 -3734.597 L -877.1062 -3734.597 C -876.6173 -3734.597 -876.2173 -3734.197 -876.2173 -3733.7083 L -876.2173 -3732.8194 C -876.2173 -3732.3306 -876.6173 -3731.9306 -877.1062 -3731.9306 L -877.9951 -3731.9306 C -878.484 -3731.9306 -878.884 -3732.3306 -878.884 -3732.8194 Z M -873.9951 -3732.8194 C -874.244 -3732.8194 -874.4396 -3733.015 -874.4396 -3733.264 C -874.4396 -3733.5128 -874.244 -3733.7083 -873.9951 -3733.7083 L -863.3284 -3733.7083 C -863.0796 -3733.7083 -862.884 -3733.5128 -862.884 -3733.264 C -862.884 -3733.015 -863.0796 -3732.8194 -863.3284 -3732.8194 Z M -878.884 -3729.264 C -878.884 -3729.7528 -878.484 -3730.1528 -877.9951 -3730.1528 L -877.1062 -3730.1528 C -876.6173 -3730.1528 -876.2173 -3729.7528 -876.2173 -3729.264 L -876.2173 -3728.375 C -876.2173 -3727.886 -876.6173 -3727.486 -877.1062 -3727.486 L -877.9951 -3727.486 C -878.484 -3727.486 -878.884 -3727.886 -878.884 -3728.375 Z M -873.9951 -3728.375 C -874.244 -3728.375 -874.4396 -3728.5706 -874.4396 -3728.8194 C -874.4396 -3729.0683 -874.244 -3729.264 -873.9951 -3729.264 L -863.3284 -3729.264 C -863.0796 -3729.264 -862.884 -3729.0683 -862.884 -3728.8194 C -862.884 -3728.5706 -863.0796 -3728.375 -863.3284 -3728.375 Z M -878.884 -3724.8194 C -878.884 -3725.3083 -878.484 -3725.7083 -877.9951 -3725.7083 L -877.1062 -3725.7083 C -876.6173 -3725.7083 -876.2173 -3725.3083 -876.2173 -3724.8194 L -876.2173 -3723.9306 C -876.2173 -3723.4417 -876.6173 -3723.0417 -877.1062 -3723.0417 L -877.9951 -3723.0417 C -878.484 -3723.0417 -878.884 -3723.4417 -878.884 -3723.9306 Z M -877.9951 -3733.7083 L -877.9951 -3732.8194 L -877.1062 -3732.8194 L -877.1062 -3733.7083 Z M -877.9951 -3729.264 L -877.9951 -3728.375 L -877.1062 -3728.375 L -877.1062 -3729.264 Z M -877.9951 -3724.8194 L -877.9951 -3723.9306 L -877.1062 -3723.9306 L -877.1062 -3724.8194 Z M -873.9951 -3723.9306 C -874.244 -3723.9306 -874.4396 -3724.126 -874.4396 -3724.375 C -874.4396 -3724.624 -874.244 -3724.8194 -873.9951 -3724.8194 L -863.3284 -3724.8194 C -863.0796 -3724.8194 -862.884 -3724.624 -862.884 -3724.375 C -862.884 -3724.126 -863.0796 -3723.9306 -863.3284 -3723.9306 Z" fill="#5c76a1"/>
        </g>
      </g>
    </g>
  </g>
</svg>
